X:236
T:Whiter Than Snow
%%stretchlast false
M:3/4
L:1/8
K:F clef=C1
"^I"[F,,F,A,C]2 [F,,F,A,C]2 "^I¹"[A,,F,CF]2 | "^V"[C,E,CG]2 "^I"[F,CA]3 "^ii7³"[F,B,G] | "^I"[F,A,F]2 "^V7"[C,E,B,G]2 "^iii¹"[C,E,CA]2 | "^V7"[C,E,B,G]2 "^I"[F,,F,A,F]4 | [F,,F,A,C]2 [F,,F,A,C]2 "^I¹"[A,,F,CF]2 | "^V"[C,E,CG]2 "^I"[F,CA]3 "^ii7³"[F,B,G] | "^I"[F,A,F]2 "^V7"[C,E,B,G]2 "^iii¹"[C,E,CA]2 | "^V7"[C,E,B,G]2 "^I"[F,,F,A,F]4 | [F,CA]2 [F,A,Cc]2 [F,CA]2 | "^I¹"[A,,F,CF]2 "^IV"[B,,F,B,D] [B,,F,DF] [B,,F,DF]2 | [B,,F,DF]2 [B,,F,DB]2 [B,,F,DB]2 | [B,,F,DB]2 "^I"[F,,F,CA]4 | [F,,F,A,C]2 [F,,F,A,C]2 "^I¹"[A,,F,CF]2 | "^I"[F,,F,CA]2 "^I²"[C,F,CA]3 "^V7"[C,E,B,G] | "^I²"[C,F,A,F]2 "^V"[C,E,CG]3 "^vi7³"[C,D,CF] | "^V7"[C,E,B,G]2 "^I"[F,,F,A,F]6 | "^V7"[C,E,B,G]2 [C,E,B,G]2 | [C,E,B,G]2 [C,E,B,G]4 | "^vi"[D,F,A,F]2 [D,F,A,A]2 [D,F,A,F]2 | "^IV"[B,,F,B,D]2 "^I"[F,,F,A,C]4 | [F,,F,A,C]2 "^IV"[B,,F,B,D]2 [B,,F,DF]2 | [B,,F,DB]2 "^I²"[C,F,CA]3 "^V7"[C,E,B,G] | "^I²"[C,F,A,F]2 "^V"[C,E,CG]3 "^vi7³"[C,D,CF] | "^V7"[C,E,B,G]2 "^I"[F,,F,A,F]4 |]
